X: 20571
T: JIM CROW
C:
%R: hornpipe, reel
B: Elias Howe "The Musician's Companion" 1843 p.57 #1
S: http://imslp.org/wiki/The_Musician's_Companion_(Howe,_Elias)
Z: 2015 John Chambers <jc:trillian.mit.edu>
N: Should the 2nd strain be in C rather than G? It makes more sense that way, but the only f natural is in the pickup.
M: 2/4
L: 1/16
K: G
% - - - - - - - - - - - - - - - - - - - - - - - - -
g2 |\
f>dd>d f>aa>f | gfef g2zg | fgef defd | ABAF G2FG |\
A2FA B2GB | cBAB c4 | BcdB cdec | d2f2g2 :|
g=f |\
efge fgaf | efge dBAG | edec fgaf | ecdB c2gf |\
efge fgaf | efge dBAG | edec fgaf | ecdB "^D.C."c2 |]
% - - - - - - - - - - - - - - - - - - - - - - - - -

%%sep 1 1 500

